groups/nitrogen/nitrate.svg

<?xml version='1.0' encoding='iso-8859-1'?>
<svg version='1.1' baseProfile='full'
              xmlns='http://www.w3.org/2000/svg'
                      xmlns:rdkit='http://www.rdkit.org/xml'
                      xmlns:xlink='http://www.w3.org/1999/xlink'
                  xml:space='preserve'
width='256px' height='256px' viewBox='0 0 256 256'>
<!-- END OF HEADER -->
<rect style='opacity:1.0;fill:#FFFFFF;stroke:none' width='256.0' height='256.0' x='0.0' y='0.0'> </rect>
<path class='bond-0 atom-0 atom-1' d='M 184.3,15.2 L 184.4,82.5' style='fill:none;fill-rule:evenodd;stroke:#000000;stroke-width:2.0px;stroke-linecap:butt;stroke-linejoin:miter;stroke-opacity:1' />
<path class='bond-1 atom-1 atom-2' d='M 169.7,105.8 L 138.5,123.9' style='fill:none;fill-rule:evenodd;stroke:#000000;stroke-width:2.0px;stroke-linecap:butt;stroke-linejoin:miter;stroke-opacity:1' />
<path class='bond-2 atom-2 atom-3' d='M 101.8,124.6 L 60.1,100.7' style='fill:none;fill-rule:evenodd;stroke:#000000;stroke-width:2.0px;stroke-linecap:butt;stroke-linejoin:miter;stroke-opacity:1' />
<path class='bond-2 atom-2 atom-3' d='M 95.7,135.3 L 53.9,111.3' style='fill:none;fill-rule:evenodd;stroke:#000000;stroke-width:2.0px;stroke-linecap:butt;stroke-linejoin:miter;stroke-opacity:1' />
<path class='bond-3 atom-2 atom-4' d='M 113.5,161.1 L 113.6,205.8' style='fill:none;fill-rule:evenodd;stroke:#000000;stroke-width:2.0px;stroke-linecap:butt;stroke-linejoin:miter;stroke-opacity:1' />
<path class='atom-1' d='M143.237,15.2732 C143.243,18.3506 147.346,18.3424 147.34,15.265 C147.334,12.1877 151.437,12.1795 151.443,15.2568 C151.449,18.3341 155.552,18.3259 155.546,15.2486 C155.54,12.1713 159.643,12.1631 159.649,15.2404 C159.655,18.3177 163.758,18.3095 163.752,15.2322 C163.746,12.1549 167.849,12.1467 167.855,15.224 C167.861,18.3013 171.964,18.2931 171.958,15.2158 C171.952,12.1385 176.055,12.1303 176.061,15.2076 C176.068,18.2849 180.171,18.2767 180.164,15.1994 C180.158,12.1221 184.261,12.1139 184.267,15.1912 C184.274,18.2685 188.377,18.2603 188.37,15.183 C188.364,12.1056 192.467,12.0974 192.473,15.1748 C192.48,18.2521 196.583,18.2439 196.577,15.1666 C196.57,12.0892 200.673,12.081 200.68,15.1584 C200.686,18.2357 204.789,18.2275 204.783,15.1501 C204.776,12.0728 208.879,12.0646 208.886,15.1419 C208.892,18.2193 212.995,18.2111 212.989,15.1337 C212.982,12.0564 217.086,12.0482 217.092,15.1255 C217.098,18.2029 221.201,18.1946 221.195,15.1173 C221.189,12.04 225.292,12.0318 225.298,15.1091' style='fill:none;stroke:#7F7F7F;stroke-width:2.0px;stroke-linecap:butt;stroke-linejoin:miter;stroke-opacity:1' />
<text x='172.4' y='117.3' class='atom-1' style='font-size:40px;font-style:normal;font-weight:normal;fill-opacity:1;stroke:none;font-family:sans-serif;text-anchor:start;fill:#000000' >O</text>
<text x='101.4' y='158.4' class='atom-2' style='font-size:40px;font-style:normal;font-weight:normal;fill-opacity:1;stroke:none;font-family:sans-serif;text-anchor:start;fill:#000000' >N</text>
<text x='129.0' y='142.4' class='atom-2' style='font-size:26px;font-style:normal;font-weight:normal;fill-opacity:1;stroke:none;font-family:sans-serif;text-anchor:start;fill:#000000' >+</text>
<text x='30.3' y='117.5' class='atom-3' style='font-size:40px;font-style:normal;font-weight:normal;fill-opacity:1;stroke:none;font-family:sans-serif;text-anchor:start;fill:#000000' >O</text>
<text x='101.6' y='240.5' class='atom-4' style='font-size:40px;font-style:normal;font-weight:normal;fill-opacity:1;stroke:none;font-family:sans-serif;text-anchor:start;fill:#000000' >O</text>
<text x='129.2' y='224.5' class='atom-4' style='font-size:26px;font-style:normal;font-weight:normal;fill-opacity:1;stroke:none;font-family:sans-serif;text-anchor:start;fill:#000000' >-</text>
</svg>

<svg height="256" viewBox="0 0 256 256" width="256" xmlns="http://www.w3.org/2000/svg"><path d="m0 0h256v256h-256z" fill="#fff"/><g fill="none" stroke-width="2"><path d="m184.3 15.2.1 67.3" stroke="#000"/><path d="m169.7 105.8-31.2 18.1" stroke="#000"/><path d="m101.8 124.6-41.7-23.9" stroke="#000"/><path d="m95.7 135.3-41.8-24" stroke="#000"/><path d="m113.5 161.1.1 44.7" stroke="#000"/><path d="m143.237 15.273c.006 3.078 4.109 3.069 4.103-.008s4.097-3.085 4.103-.008 4.109 3.069 4.103-.008c-.006-3.078 4.097-3.086 4.103-.009.006 3.078 4.109 3.07 4.103-.008-.006-3.077 4.097-3.085 4.103-.008s4.109 3.069 4.103-.008 4.097-3.086 4.103-.008c.007 3.077 4.11 3.069 4.103-.009-.006-3.077 4.097-3.085 4.103-.008.007 3.078 4.11 3.069 4.103-.008-.006-3.077 4.097-3.086 4.103-.008.007 3.077 4.11 3.069 4.104-.008-.007-3.078 4.096-3.086 4.103-.009.006 3.078 4.109 3.07 4.103-.008-.007-3.077 4.096-3.085 4.103-.008.006 3.077 4.109 3.069 4.103-.008-.007-3.078 4.097-3.086 4.103-.008.006 3.077 4.109 3.069 4.103-.009-.006-3.077 4.097-3.085 4.103-.008" stroke="#7f7f7f"/></g><text font-family="sans-serif" font-size="40" x="172.4" y="117.3">O</text><text font-family="sans-serif" font-size="40" x="101.4" y="158.4">N</text><text font-family="sans-serif" font-size="26" x="129" y="142.4">+</text><text font-family="sans-serif" font-size="40" x="30.3" y="117.5">O</text><text font-family="sans-serif" font-size="40" x="101.6" y="240.5">O</text><text font-family="sans-serif" font-size="26" x="129.2" y="224.5">-</text></svg>
